X:251
T:John Stenson's No. 2
R:reel
D:Matt Molloy: Stony Steps
D:Kevin Burke: If the Cap Fits
N: Z:id:hn-reel-341
M:C|
K:A
ABBA B2cB|ABBA BAFB|ABBA B2cf|edcA BAFB|
ABBA B2cB|ABBA BAFA|d2dc dfed|1 cdBc A2cB:|2 cdBc A3e||
|:e2cd edcd|e2cA BAFA|e2cd edcA|(3Bcd cA BAFA|
e2cd edcd|e2cA BAFA|d2dc dfed|1 cdBc A3e:|2 cdBc A2cB||
